assets/ai/ai-jstor-square.svg

<svg xmlns="http://www.w3.org/2000/svg" width="100%" height="100%" viewBox="-75.52 -43.52 599.04 599.04"><path d="M 48 32 C 21.5 32 0 53.5 0 80 L 0 432 C 0 458.5 21.5 480 48 480 L 400 480 C 426.5 480 448 458.5 448 432 L 448 80 C 448 53.5 426.5 32 400 32 L 48 32 z M 223.64258 96.001953 C 230.66581 96.016873 240.10968 96.095282 252.83008 96.195312 C 282.43877 96.427918 300.43031 96.795181 300.90625 97.171875 C 302.12756 98.135391 301.83597 101.14616 300.45117 101.88672 C 299.78276 102.24496 296.67623 103.18647 293.54297 103.98047 C 285.60812 105.99359 280.72252 108.57964 276.5625 112.9668 C 272.04169 117.73093 268.31293 125.11119 267.51367 130.86719 C 267.15284 133.47115 266.92306 170.33955 266.91406 225.30078 C 266.90335 315.43688 266.67187 327.12751 264.71484 338.70898 C 261.21264 359.43372 251.25269 377.77228 237.48438 388.86719 C 227.7449 396.72719 219.56615 400.60266 207.12109 403.22266 C 200.87859 404.5326 186.31101 405.31017 179.06055 404.69531 C 166.52197 403.65267 160.80703 403.01101 160.18945 402.63672 C 159.41148 402.15557 145.86539 360.58286 146.33594 360.10156 C 146.49103 359.94114 150.41284 363.17656 155.05664 367.24023 C 172.73365 382.77309 179.01111 386.16508 191.74219 387.1543 C 200.60207 387.84944 208.74452 385.71124 215.43359 380.92578 C 225.44305 373.78758 231.14566 363.09716 234.29492 345.58594 C 235.11287 341.04103 235.33549 333.36441 235.58398 300.74805 C 235.74736 279.10896 236.2336 241.08758 236.66406 216.26172 C 237.65348 159.14031 237.52987 132.07342 236.25195 127.73438 C 234.7842 122.75638 231.50668 117.1837 227.55273 112.93555 C 223.23499 108.29708 218.08616 105.62452 209.74219 103.68359 C 204.04238 102.35754 202.10289 101.02571 202.67773 98.828125 C 203.28726 96.495514 202.57296 95.956473 223.64258 96.001953 z M 292.98047 111.12891 C 293.34675 111.20644 292.68508 111.96073 290.89648 113.375 C 287.552 116.01906 285.37595 118.68175 283.4082 122.54492 C 280.25677 128.72867 280.34902 125.8783 280.32812 233.03906 C 280.31216 341.22644 280.41243 337.67913 276.96094 350.63477 C 275.13233 357.50562 273.12754 362.72312 269.56641 369.86133 C 266.45989 376.11725 264.4495 379.21601 259.38867 385.52539 C 245.91165 402.34149 230.50168 411.67366 210.54688 415.0957 C 203.50232 416.32545 183.21055 416.29558 176.31836 415.03906 C 170.15332 413.94291 164.46848 412.3112 165.53516 411.91016 C 165.98431 411.74966 171.22412 411.93882 177.16992 412.33984 C 190.66026 413.22207 203.89424 412.42285 212.59375 410.15039 C 224.59231 407.04916 237.809 399.34701 247.46289 389.80273 C 253.91662 383.43985 258.18326 377.34391 263.51953 366.89062 C 267.66074 358.79002 269.01936 355.23317 270.88281 347.7207 C 274.56372 332.83749 274.44201 336.42853 274.80273 227.85352 C 275.16093 119.06192 274.86743 126.88151 278.82422 121.40625 C 281.16614 118.16867 284.23669 115.59842 288.91797 112.95703 C 291.22785 111.65237 292.61672 111.05111 292.98047 111.12891 z"/></svg>

<svg xmlns="http://www.w3.org/2000/svg" width="100%" height="100%" viewBox="-75.52 -43.52 599.04 599.04"><path d="M48 32C21.5 32 0 53.5 0 80v352c0 26.5 21.5 48 48 48h352c26.5 0 48-21.5 48-48V80c0-26.5-21.5-48-48-48H48zm175.643 64.002c7.023.015 16.467.093 29.187.193 29.609.233 47.6.6 48.076.977 1.222.963.93 3.974-.455 4.715-.668.358-3.775 1.3-6.908 2.093-7.935 2.014-12.82 4.6-16.98 8.987-4.521 4.764-8.25 12.144-9.05 17.9-.36 2.604-.59 39.473-.599 94.434-.01 90.136-.242 101.827-2.2 113.408-3.501 20.725-13.461 39.063-27.23 50.158-9.74 7.86-17.918 11.736-30.363 14.356-6.242 1.31-20.81 2.087-28.06 1.472-12.539-1.042-18.254-1.684-18.872-2.058-.778-.481-14.324-42.054-13.853-42.535.155-.16 4.077 3.075 8.72 7.138 17.678 15.533 23.955 18.925 36.686 19.914 8.86.695 17.003-1.443 23.692-6.228 10.01-7.138 15.712-17.829 18.86-35.34.819-4.545 1.041-12.222 1.29-44.838.163-21.639.65-59.66 1.08-84.486.99-57.122.866-84.189-.412-88.528-1.468-4.978-4.745-10.55-8.7-14.798-4.317-4.639-9.466-7.311-17.81-9.252-5.7-1.326-7.64-2.658-7.064-4.856.61-2.332-.105-2.872 20.965-2.826zm69.337 15.127c.367.077-.295.832-2.084 2.246-3.344 2.644-5.52 5.307-7.488 9.17-3.151 6.184-3.059 3.333-3.08 110.494-.016 108.187.084 104.64-3.367 117.596-1.829 6.87-3.833 12.088-7.395 19.226-3.106 6.256-5.116 9.355-10.177 15.664-13.477 16.816-28.887 26.149-48.842 29.57-7.045 1.23-27.336 1.2-34.229-.056-6.165-1.096-11.85-2.728-10.783-3.129.45-.16 5.69.029 11.635.43 13.49.882 26.724.083 35.424-2.19 11.998-3.1 25.215-10.803 34.869-20.347 6.454-6.363 10.72-12.46 16.057-22.912 4.14-8.101 5.5-11.658 7.363-19.17 3.68-14.884 3.559-11.292 3.92-119.867.358-108.792.064-100.972 4.021-106.448 2.342-3.237 5.413-5.808 10.094-8.449 2.31-1.305 3.699-1.906 4.062-1.828z"/></svg>
